X:1
T:Aragon Mill
M:2/4
L:1/8
K:E
 z2 EG| B2 Bc| B2 E F/2 G/2-| G2 G F/2 G/2-| G2 z E/2E/2| F2 FG| F2 CE|\
 F2 F/2 C/2- C| E4-| E2 z2|
